app/assets/images/heroicon/solid/cog.svg

<svg width="24" height="24" viewBox="0 0 24 24" fill="none" xmlns="http://www.w3.org/2000/svg">
<path d="M17.0039 10.4067C17.1423 10.8417 16.7882 11.2491 16.3317 11.2491H12.8667C12.5988 11.2491 12.3512 11.1062 12.2172 10.8742L10.4845 7.87324C10.2561 7.47765 10.4321 6.9671 10.8784 6.86997C11.2398 6.79133 11.6151 6.7499 12 6.7499C14.344 6.7499 16.3293 8.2861 17.0039 10.4067Z" fill="#0F172A"/>
<path d="M8.11938 8.46385C8.42728 8.12615 8.95767 8.22878 9.18619 8.62454L10.9182 11.6241C11.0522 11.8562 11.0522 12.1421 10.9182 12.3742L9.18577 15.3748C8.95726 15.7706 8.42679 15.8732 8.11891 15.5354C7.26853 14.6025 6.75 13.3617 6.75 11.9999C6.75 10.6378 7.26872 9.39687 8.11938 8.46385Z" fill="#0F172A"/>
<path d="M10.8778 17.1297C10.4315 17.0325 10.2555 16.522 10.4839 16.1264L12.2172 13.1241C12.3512 12.8921 12.5988 12.7491 12.8668 12.7491H16.3322C16.7886 12.7491 17.1426 13.1564 17.0044 13.5914C16.3304 15.7129 14.3447 17.2499 12 17.2499C11.6148 17.2499 11.2393 17.2084 10.8778 17.1297Z" fill="#0F172A"/>
<path fill-rule="evenodd" clip-rule="evenodd" d="M21.0007 12.7491C21.4149 12.7491 21.7507 12.4134 21.7507 11.9991C21.7507 11.5849 21.4149 11.2491 21.0007 11.2491H20.2171C20.1753 10.785 20.095 10.3319 19.9795 9.89316L20.7143 9.62573C21.1035 9.48406 21.3042 9.05368 21.1625 8.66444C21.0209 8.27521 20.5905 8.07452 20.2012 8.21619L19.4664 8.48365C19.2695 8.06623 19.0386 7.66798 18.7773 7.29248L19.3771 6.7892C19.6944 6.52295 19.7358 6.04988 19.4695 5.73258C19.2033 5.41527 18.7302 5.37388 18.4129 5.64014L17.8126 6.14384C17.4869 5.82057 17.1344 5.52427 16.7588 5.2586L17.1502 4.58068C17.3573 4.22196 17.2344 3.76327 16.8756 3.55616C16.5169 3.34906 16.0582 3.47196 15.8511 3.83068L15.4604 4.50741C15.0465 4.31594 14.614 4.15776 14.1664 4.03632L14.3021 3.26684C14.374 2.85892 14.1016 2.46992 13.6937 2.39799C13.2858 2.32607 12.8968 2.59844 12.8249 3.00636L12.6889 3.77743C12.462 3.75869 12.2325 3.74914 12.0007 3.74914C11.769 3.74914 11.5394 3.75871 11.3124 3.77748L11.1764 3.00641C11.1045 2.59848 10.7155 2.32611 10.3076 2.39804C9.89966 2.46996 9.62728 2.85896 9.69921 3.26688L9.83492 4.03655C9.38749 4.15799 8.95506 4.31614 8.54113 4.50758L8.15018 3.8305C7.94306 3.47179 7.48436 3.3489 7.12565 3.55602C6.76694 3.76314 6.64405 4.22184 6.85117 4.58055L7.24273 5.25869C6.86722 5.52423 6.51483 5.82042 6.18921 6.14362L5.58845 5.63952C5.27114 5.37326 4.79807 5.41465 4.53182 5.73196C4.26557 6.04926 4.30696 6.52233 4.62426 6.78858L5.22448 7.29223C4.96309 7.66784 4.73209 8.06625 4.53509 8.48387L3.80006 8.21634C3.41082 8.07467 2.98044 8.27536 2.83877 8.6646C2.6971 9.05383 2.89779 9.48421 3.28703 9.62588L4.02196 9.89337C3.90647 10.3321 3.8262 10.785 3.78437 11.2491H3.00073C2.58652 11.2491 2.25073 11.5849 2.25073 11.9991C2.25073 12.4134 2.58652 12.7491 3.00073 12.7491H3.78437C3.82619 13.2132 3.90644 13.6663 4.02192 14.105L3.28678 14.3725C2.89755 14.5142 2.69685 14.9446 2.83852 15.3338C2.98019 15.7231 3.41058 15.9238 3.79981 15.7821L4.53502 15.5145C4.73205 15.9322 4.9631 16.3307 5.22461 16.7064L4.62411 17.2103C4.30681 17.4766 4.26542 17.9496 4.53167 18.2669C4.79792 18.5842 5.27099 18.6256 5.58829 18.3594L6.1894 17.855C6.51507 18.1782 6.86754 18.4744 7.2432 18.74L6.85112 19.4191C6.64401 19.7779 6.76692 20.2366 7.12564 20.4437C7.48436 20.6508 7.94305 20.5279 8.15016 20.1691L8.54161 19.4911C8.9554 19.6825 9.38772 19.8406 9.83514 19.962L9.6992 20.7329C9.62727 21.1408 9.89965 21.5298 10.3076 21.6017C10.7155 21.6737 11.1045 21.4013 11.1764 20.9934L11.3126 20.2208C11.5395 20.2396 11.769 20.2491 12.0007 20.2491C12.2324 20.2491 12.4618 20.2396 12.6887 20.2209L12.8249 20.9934C12.8968 21.4013 13.2858 21.6737 13.6937 21.6018C14.1016 21.5299 14.374 21.1409 14.3021 20.7329L14.1662 19.962C14.6136 19.8406 15.046 19.6825 15.4598 19.4911L15.8512 20.169C16.0583 20.5277 16.517 20.6506 16.8757 20.4435C17.2344 20.2364 17.3573 19.7777 17.1502 19.419L16.7582 18.7401C17.134 18.4744 17.4866 18.178 17.8123 17.8547L18.4131 18.3588C18.7304 18.625 19.2034 18.5836 19.4697 18.2663C19.7359 17.949 19.6946 17.4759 19.3772 17.2097L18.7771 16.7061C19.0385 16.3305 19.2694 15.9322 19.4664 15.5147L20.2015 15.7822C20.5907 15.9239 21.0211 15.7232 21.1628 15.334C21.3044 14.9448 21.1038 14.5144 20.7145 14.3727L19.9795 14.1052C20.095 13.6664 20.1753 13.2133 20.2171 12.7491H21.0007ZM18.3435 9.6905C18.3374 9.67387 18.332 9.65717 18.3272 9.64042C18.0593 8.92237 17.6728 8.26219 17.1913 7.68375C17.1846 7.67631 17.1779 7.66871 17.1714 7.66094C17.165 7.65333 17.1588 7.64564 17.1528 7.63786C16.6625 7.0593 16.0766 6.5644 15.4194 6.17763C15.4046 6.17036 15.3901 6.16257 15.3756 6.15424C15.3608 6.14569 15.3464 6.1367 15.3324 6.12731C14.6882 5.761 13.9778 5.49764 13.2236 5.35962C13.2067 5.35781 13.1897 5.35541 13.1728 5.35242C13.1563 5.34952 13.1401 5.3461 13.1241 5.34219C12.7588 5.28099 12.3835 5.24914 12.0007 5.24914C11.6183 5.24914 11.2435 5.28087 10.8788 5.34184C10.8623 5.34592 10.8455 5.34946 10.8285 5.35246C10.8109 5.35556 10.7934 5.35802 10.7759 5.35985C10.005 5.50106 9.28044 5.77317 8.62548 6.15217C7.94757 6.54444 7.34445 7.05092 6.84231 7.6452C6.83827 7.65028 6.83415 7.65532 6.82995 7.66032C6.82783 7.66286 6.82568 7.66538 6.82353 7.66788C6.82127 7.6705 6.819 7.6731 6.81671 7.67568C6.33198 8.25625 5.94308 8.91936 5.67409 9.64078C5.66929 9.65746 5.66388 9.6741 5.65785 9.69066C5.65182 9.70722 5.64527 9.72345 5.63822 9.73932C5.38727 10.4459 5.25073 11.2066 5.25073 11.9991C5.25073 12.7935 5.38795 13.5558 5.63997 14.2637C5.64626 14.2781 5.65215 14.2928 5.6576 14.3078C5.66305 14.3227 5.66799 14.3378 5.67243 14.3528C6.21997 15.8244 7.26613 17.0534 8.60555 17.8344C8.60934 17.8364 8.61311 17.8385 8.61688 17.8406C8.6198 17.8422 8.62272 17.8439 8.62564 17.8456C8.63265 17.8496 8.63958 17.8538 8.64641 17.858C9.3043 18.2355 10.0318 18.5053 10.8049 18.6435C10.8128 18.6447 10.8207 18.6459 10.8285 18.6473C10.8358 18.6486 10.8431 18.65 10.8504 18.6515C11.2242 18.7157 11.6086 18.7491 12.0007 18.7491C12.3929 18.7491 12.7773 18.7157 13.1512 18.6515C13.1584 18.65 13.1655 18.6486 13.1728 18.6474C13.1805 18.646 13.1883 18.6448 13.1961 18.6436C13.9675 18.5058 14.6935 18.2369 15.3503 17.8608C15.3586 17.8555 15.3671 17.8504 15.3757 17.8454C15.3839 17.8407 15.3922 17.8361 15.4006 17.8317C16.07 17.4406 16.666 16.9376 17.163 16.3484L17.1716 16.338L17.1808 16.3272C17.6679 15.7448 18.0587 15.079 18.3285 14.3543C18.333 14.3388 18.3381 14.3233 18.3437 14.3079C18.3493 14.2925 18.3554 14.2773 18.3619 14.2625C18.6137 13.555 18.7507 12.7931 18.7507 11.9991C18.7507 11.2066 18.6141 10.4459 18.3632 9.73945C18.3561 9.72349 18.3495 9.70717 18.3435 9.6905Z" fill="#0F172A"/>
</svg>

<svg xmlns="http://www.w3.org/2000/svg" viewBox="0 0 24 24" fill="currentColor" aria-hidden="true">
  <path d="M17.004 10.407c.138.435-.216.842-.672.842h-3.465a.75.75 0 01-.65-.375l-1.732-3c-.229-.396-.053-.907.393-1.004a5.252 5.252 0 016.126 3.537zM8.12 8.464c.307-.338.838-.235 1.066.16l1.732 3a.75.75 0 010 .75l-1.732 3.001c-.229.396-.76.498-1.067.16A5.231 5.231 0 016.75 12c0-1.362.519-2.603 1.37-3.536zM10.878 17.13c-.447-.097-.623-.608-.394-1.003l1.733-3.003a.75.75 0 01.65-.375h3.465c.457 0 .81.408.672.843a5.252 5.252 0 01-6.126 3.538z"/>
  <path fill-rule="evenodd" d="M21 12.75a.75.75 0 000-1.5h-.783a8.22 8.22 0 00-.237-1.357l.734-.267a.75.75 0 10-.513-1.41l-.735.268a8.24 8.24 0 00-.689-1.191l.6-.504a.75.75 0 10-.964-1.149l-.6.504a8.3 8.3 0 00-1.054-.885l.391-.678a.75.75 0 10-1.299-.75l-.39.677a8.188 8.188 0 00-1.295-.471l.136-.77a.75.75 0 00-1.477-.26l-.136.77a8.364 8.364 0 00-1.377 0l-.136-.77a.75.75 0 10-1.477.26l.136.77c-.448.121-.88.28-1.294.47l-.39-.676a.75.75 0 00-1.3.75l.392.678a8.29 8.29 0 00-1.054.885l-.6-.504a.75.75 0 00-.965 1.149l.6.503a8.243 8.243 0 00-.689 1.192L3.8 8.217a.75.75 0 10-.513 1.41l.735.267a8.222 8.222 0 00-.238 1.355h-.783a.75.75 0 000 1.5h.783c.042.464.122.917.238 1.356l-.735.268a.75.75 0 10.513 1.41l.735-.268c.197.417.428.816.69 1.192l-.6.504a.75.75 0 10.963 1.149l.601-.505c.326.323.679.62 1.054.885l-.392.68a.75.75 0 101.3.75l.39-.679c.414.192.847.35 1.294.471l-.136.771a.75.75 0 101.477.26l.137-.772a8.376 8.376 0 001.376 0l.136.773a.75.75 0 101.477-.26l-.136-.772a8.19 8.19 0 001.294-.47l.391.677a.75.75 0 101.3-.75l-.393-.679a8.282 8.282 0 001.054-.885l.601.504a.75.75 0 10.964-1.15l-.6-.503a8.24 8.24 0 00.69-1.191l.735.268a.75.75 0 10.512-1.41l-.734-.268c.115-.438.195-.892.237-1.356h.784zm-2.657-3.06a6.744 6.744 0 00-1.19-2.053 6.784 6.784 0 00-1.82-1.51A6.704 6.704 0 0012 5.25a6.801 6.801 0 00-1.225.111 6.7 6.7 0 00-2.15.792 6.784 6.784 0 00-2.952 3.489.758.758 0 01-.036.099A6.74 6.74 0 005.251 12a6.739 6.739 0 003.355 5.835l.01.006.01.005a6.706 6.706 0 002.203.802c.007 0 .014.002.021.004a6.792 6.792 0 002.301 0l.022-.004a6.707 6.707 0 002.228-.816 6.781 6.781 0 001.762-1.483l.009-.01.009-.012a6.744 6.744 0 001.18-2.064c.253-.708.39-1.47.39-2.264a6.74 6.74 0 00-.408-2.308z" clip-rule="evenodd"/>
</svg>
